src/assets/bg_leaderboard_bottom1.svg

<svg width="655" height="78" viewBox="0 0 655 78" fill="none" xmlns="http://www.w3.org/2000/svg">
<path d="M84.3996 12.1167L49.0669 16.0065L41.2526 16.1903L35.2157 27.0634L28.8723 29.2992L22.9887 20.6927L11.3745 20.8152L0.832908 23.5411H0.679688L1.07806 37.7833L4.38764 41.5506L6.62466 36.6501L9.10684 31.2595L12.018 30.7694L22.2838 56.8342L66.5341 49.4221L84.3996 12.1167Z" fill="url(#paint0_linear_444_19587)"/>
<path opacity="0.5" d="M66.5344 49.4213L38.8014 34.4746L25.226 36.8636L22.2842 56.8334L66.5344 49.4213Z" fill="url(#paint1_linear_444_19587)"/>
<path d="M52.6832 7.88939L47.5656 4.85718L35.3998 26.7259L35.216 27.0628L28.9033 29.2987H28.8726L22.9583 20.6308L16.1553 20.7533L25.226 36.8639L25.4098 36.8333L30.5887 35.9144L38.8013 34.4749L52.6832 7.88939Z" fill="url(#paint2_linear_444_19587)"/>
<path opacity="0.5" d="M66.5344 49.4216L42.1416 14.5971L50.5381 0.109863L81.6726 17.7825L66.5344 49.4216Z" fill="url(#paint3_linear_444_19587)"/>
<path d="M12.0181 30.7692L11.3133 28.5027L4.3877 29.1153V41.5504L9.01497 31.4124L9.1069 31.2592L12.0181 30.7692Z" fill="url(#paint4_linear_444_19587)"/>
<path d="M12.0176 30.7688L22.2834 56.8336L66.5336 49.4521C66.5336 49.4521 23.4172 55.9147 23.0801 55.7003C22.743 55.4859 24.3978 42.4382 24.3365 42.7445C24.2753 43.0508 22.743 53.2194 22.0382 53.0357C21.3334 52.8519 12.0176 30.7688 12.0176 30.7688Z" fill="url(#paint5_linear_444_19587)"/>
<path opacity="0.5" d="M4.38764 29.1149L0.832908 23.5405H0.679688L1.07806 37.7827L4.38764 41.55V29.1149Z" fill="url(#paint6_linear_444_19587)"/>
<path opacity="0.5" d="M38.801 34.4748C38.801 34.4748 36.901 30.1562 35.3995 26.7258L35.2156 27.0627L28.9029 29.2986H28.8722L25.2256 36.8638L25.4094 36.8332L30.5883 35.9144L38.801 34.4748Z" fill="url(#paint7_linear_444_19587)"/>
<path opacity="0.5" d="M9.01534 31.4124C7.63635 30.7692 5.06224 29.4828 4.48 29.1765C4.41871 29.1459 4.35742 29.1152 4.35742 29.1152V41.5504L9.01534 31.4124Z" fill="url(#paint8_linear_444_19587)"/>
<path d="M570.601 12.1167L605.933 16.0065L613.748 16.1903L619.785 27.0634L626.128 29.2992L631.981 20.6927L643.626 20.8152L654.167 23.5411H654.321L653.892 37.7833L650.613 41.5506L648.376 36.6501L645.893 31.2595L642.982 30.7694L632.716 56.8342L588.466 49.4221L570.601 12.1167Z" fill="url(#paint9_linear_444_19587)"/>
<path opacity="0.5" d="M588.466 49.4213L616.199 34.4746L629.774 36.8636L632.716 56.8334L588.466 49.4213Z" fill="url(#paint10_linear_444_19587)"/>
<path d="M602.317 7.88939L607.435 4.85718L619.601 26.7259L619.785 27.0628L626.097 29.2987H626.128L632.042 20.6308L638.845 20.7533L629.775 36.8639L629.591 36.8333L624.412 35.9144L616.199 34.4749L602.317 7.88939Z" fill="url(#paint11_linear_444_19587)"/>
<path opacity="0.5" d="M588.466 49.4216L612.859 14.5971L604.463 0.109863L573.328 17.7825L588.466 49.4216Z" fill="url(#paint12_linear_444_19587)"/>
<path d="M642.982 30.7692L643.687 28.5027L650.613 29.1153V41.5504L645.986 31.4124L645.894 31.2592L642.982 30.7692Z" fill="url(#paint13_linear_444_19587)"/>
<path d="M642.982 30.7688L632.716 56.8336L588.466 49.4521C588.466 49.4521 631.582 55.9147 631.919 55.7003C632.256 55.4859 630.602 42.4382 630.663 42.7445C630.724 43.0508 632.256 53.2194 632.961 53.0357C633.666 52.8519 642.982 30.7688 642.982 30.7688Z" fill="url(#paint14_linear_444_19587)"/>
<path opacity="0.5" d="M650.612 29.1149L654.167 23.5405H654.32L653.891 37.7827L650.612 41.55V29.1149Z" fill="url(#paint15_linear_444_19587)"/>
<path opacity="0.5" d="M616.199 34.4748C616.199 34.4748 618.099 30.1562 619.601 26.7258L619.785 27.0627L626.097 29.2986H626.128L629.775 36.8638L629.591 36.8332L624.412 35.9144L616.199 34.4748Z" fill="url(#paint16_linear_444_19587)"/>
<path opacity="0.5" d="M645.985 31.4124C647.364 30.7692 649.938 29.4828 650.521 29.1765C650.582 29.1459 650.643 29.1152 650.643 29.1152V41.5504L645.985 31.4124Z" fill="url(#paint17_linear_444_19587)"/>
<path d="M225.639 15.5773L246.691 15.3016C246.722 15.3323 246.722 15.3016 246.722 15.3016L327.531 14.3215H327.623L406.654 15.3016L429.514 15.5773C397.43 38.7324 363.599 56.5888 327.623 68.0744H327.531C291.585 56.5888 257.723 38.7324 225.639 15.5773Z" fill="url(#paint18_linear_444_19587)"/>
<path opacity="0.5" d="M406.654 15.3016C406.654 15.3016 405.949 15.8836 404.723 16.8943C384.621 16.5268 261.002 14.2296 246.722 15.3016C246.722 15.3016 246.722 15.3323 246.691 15.3016L225.639 15.5773C257.723 38.7324 291.554 56.5888 327.531 68.0744H327.623C363.599 56.5888 397.43 38.7324 429.514 15.5773L406.654 15.3016ZM327.592 61.8262C310.155 61.8262 254.475 23.1425 254.475 23.1425C254.475 23.1425 377.91 23.5713 404.386 23.1425C387.409 36.4046 345.09 61.8262 327.592 61.8262Z" fill="url(#paint19_linear_444_19587)"/>
<g style="mix-blend-mode:screen" opacity="0.5">
<path d="M244.087 15.3628L246.722 15.3322H246.753L327.562 14.3521H327.654L378.339 14.9952C369.636 23.173 338.318 50.9224 311.014 53.6483C282.852 56.4355 251.411 23.5406 244.087 15.3628Z" fill="url(#paint20_linear_444_19587)"/>
</g>
<path d="M215.373 18.3646L228.673 27.982C233.239 31.2898 237.835 34.4446 242.463 37.4768C268.878 54.8737 296.182 68.1358 323.854 76.9875C323.854 76.9875 325.907 77.5388 327.561 77.5388C328.818 77.5388 330.411 77.2019 331.024 77.0487L331.086 77.0181C331.239 76.9875 331.3 76.9568 331.3 76.9568C360.81 67.5233 389.861 53.0667 417.87 33.9239C418.391 33.587 418.881 33.2807 419.371 32.9131C419.678 32.7294 420.015 32.515 420.321 32.2699C422.375 30.8304 424.428 29.3909 426.481 27.9207L439.75 18.334L443.427 18.3953L419.341 18.089C419.218 18.1502 419.126 18.2727 419.004 18.334C417.839 19.1916 416.614 20.0186 415.449 20.8455C387.716 40.3865 358.481 55.4863 327.592 65.3793H327.531C296.856 55.5782 267.958 40.6928 240.471 21.3968C239.888 20.9987 239.276 20.6005 238.693 20.1717C237.805 19.5285 236.947 18.9466 236.089 18.3034C235.966 18.2421 235.874 18.1196 235.751 18.0583H236.701L215.373 18.3646Z" fill="url(#paint21_linear_444_19587)"/>
<path d="M229.224 18.1195L235.781 18.0889C237.344 19.2221 238.907 20.3554 240.501 21.4274C267.989 40.6926 296.886 55.6087 327.561 65.4098H327.622C359.982 55.0574 390.473 38.9775 419.371 18.1501H426.725C426.725 18.1501 386.03 53.526 327.591 69.7284C275.864 57.0482 229.224 18.1195 229.224 18.1195Z" fill="url(#paint22_linear_444_19587)"/>
<path opacity="0.5" d="M327.531 14.3521C366.051 13.8314 416.828 16.4655 419.372 18.15L327.224 17.0168L236.732 18.1194H235.782C239.031 15.3016 289.256 14.8728 327.531 14.3521Z" fill="url(#paint23_linear_444_19587)"/>
<path d="M385.54 17.7211H250.613C250.613 17.7211 326.09 16.3428 328.327 16.1897C330.595 16.0672 384.13 17.6905 385.54 17.7211Z" fill="url(#paint24_linear_444_19587)"/>
<defs>
<linearGradient id="paint0_linear_444_19587" x1="51.2098" y1="1.09567" x2="12.3112" y2="79.3936" gradientUnits="userSpaceOnUse">
<stop stop-color="#BF4A00"/>
<stop offset="0.7401" stop-color="#FFAF06"/>
<stop offset="1" stop-color="#FF9404"/>
</linearGradient>
<linearGradient id="paint1_linear_444_19587" x1="30.4205" y1="23.3663" x2="40.1921" y2="44.188" gradientUnits="userSpaceOnUse">
<stop stop-color="#F9B900"/>
<stop offset="1" stop-color="#FFEB67"/>
</linearGradient>
<linearGradient id="paint2_linear_444_19587" x1="33.829" y1="0.0990513" x2="35.1294" y2="31.3857" gradientUnits="userSpaceOnUse">
<stop stop-color="#AF4B00"/>
<stop offset="1" stop-color="#661200"/>
</linearGradient>
<linearGradient id="paint3_linear_444_19587" x1="61.9142" y1="79.7637" x2="61.9142" y2="37.4107" gradientUnits="userSpaceOnUse">
<stop stop-color="#E07300"/>
<stop offset="1" stop-color="#661200"/>
</linearGradient>
<linearGradient id="paint4_linear_444_19587" x1="8.90649" y1="28.5146" x2="0.417393" y2="45.5999" gradientUnits="userSpaceOnUse">
<stop stop-color="#AF4B00"/>
<stop offset="1" stop-color="#661200"/>
</linearGradient>
<linearGradient id="paint5_linear_444_19587" x1="38.3979" y1="33.635" x2="33.6146" y2="-1.89064" gradientUnits="userSpaceOnUse">
<stop stop-color="#F1D0D0"/>
<stop offset="1" stop-color="#FFEF89"/>
</linearGradient>
<linearGradient id="paint6_linear_444_19587" x1="1.95755" y1="27.7035" x2="-1.26817" y2="3.73575" gradientUnits="userSpaceOnUse">
<stop stop-color="#F9B900"/>
<stop offset="1" stop-color="#FFEB67"/>
</linearGradient>
<linearGradient id="paint7_linear_444_19587" x1="25.2069" y1="-5.12927" x2="31.6018" y2="33.2471" gradientUnits="userSpaceOnUse">
<stop stop-color="#E07300"/>
<stop offset="1" stop-color="#661200"/>
</linearGradient>
<linearGradient id="paint8_linear_444_19587" x1="6.50681" y1="31.0571" x2="0.0899993" y2="43.972" gradientUnits="userSpaceOnUse">
<stop stop-color="#E07300"/>
<stop offset="1" stop-color="#661200"/>
</linearGradient>
<linearGradient id="paint9_linear_444_19587" x1="603.79" y1="1.09567" x2="642.689" y2="79.3936" gradientUnits="userSpaceOnUse">
<stop stop-color="#BF4A00"/>
<stop offset="0.7401" stop-color="#FFAF06"/>
<stop offset="1" stop-color="#FF9404"/>
</linearGradient>
<linearGradient id="paint10_linear_444_19587" x1="624.579" y1="23.3663" x2="614.808" y2="44.188" gradientUnits="userSpaceOnUse">
<stop stop-color="#F9B900"/>
<stop offset="1" stop-color="#FFEB67"/>
</linearGradient>
<linearGradient id="paint11_linear_444_19587" x1="621.171" y1="0.0990514" x2="619.871" y2="31.3857" gradientUnits="userSpaceOnUse">
<stop stop-color="#AF4B00"/>
<stop offset="1" stop-color="#661200"/>
</linearGradient>
<linearGradient id="paint12_linear_444_19587" x1="603.196" y1="77.8384" x2="593.892" y2="21.056" gradientUnits="userSpaceOnUse">
<stop stop-color="#E07300"/>
<stop offset="1" stop-color="#661200"/>
</linearGradient>
<linearGradient id="paint13_linear_444_19587" x1="646.097" y1="28.5146" x2="654.583" y2="45.5999" gradientUnits="userSpaceOnUse">
<stop stop-color="#AF4B00"/>
<stop offset="1" stop-color="#661200"/>
</linearGradient>
<linearGradient id="paint14_linear_444_19587" x1="616.601" y1="33.635" x2="621.385" y2="-1.89064" gradientUnits="userSpaceOnUse">
<stop stop-color="#F1D0D0"/>
<stop offset="1" stop-color="#FFEF89"/>
</linearGradient>
<linearGradient id="paint15_linear_444_19587" x1="653.042" y1="27.7035" x2="656.268" y2="3.73574" gradientUnits="userSpaceOnUse">
<stop stop-color="#F9B900"/>
<stop offset="1" stop-color="#FFEB67"/>
</linearGradient>
<linearGradient id="paint16_linear_444_19587" x1="629.793" y1="-5.12926" x2="623.398" y2="33.2471" gradientUnits="userSpaceOnUse">
<stop stop-color="#E07300"/>
<stop offset="1" stop-color="#661200"/>
</linearGradient>
<linearGradient id="paint17_linear_444_19587" x1="648.494" y1="31.0571" x2="654.91" y2="43.9721" gradientUnits="userSpaceOnUse">
<stop stop-color="#E07300"/>
<stop offset="1" stop-color="#661200"/>
</linearGradient>
<linearGradient id="paint18_linear_444_19587" x1="327.585" y1="81.0315" x2="327.585" y2="18.8922" gradientUnits="userSpaceOnUse">
<stop stop-color="#F9B900"/>
<stop offset="1" stop-color="#FF9601"/>
</linearGradient>
<linearGradient id="paint19_linear_444_19587" x1="326.572" y1="5.01141" x2="334.186" y2="84.5202" gradientUnits="userSpaceOnUse">
<stop stop-color="#B41D00"/>
<stop offset="1" stop-color="#F1D0D0"/>
</linearGradient>
<linearGradient id="paint20_linear_444_19587" x1="333.879" y1="65.9113" x2="315.096" y2="23.8501" gradientUnits="userSpaceOnUse">
<stop stop-color="#F9B900"/>
<stop offset="1"/>
</linearGradient>
<linearGradient id="paint21_linear_444_19587" x1="329.411" y1="-109.756" x2="329.411" y2="85.9668" gradientUnits="userSpaceOnUse">
<stop stop-color="#933500"/>
<stop offset="0.3889" stop-color="#BF4A00"/>
<stop offset="1" stop-color="#FF9404"/>
</linearGradient>
<linearGradient id="paint22_linear_444_19587" x1="327.974" y1="-5.48797" x2="327.974" y2="80.6425" gradientUnits="userSpaceOnUse">
<stop stop-color="#AF4B00"/>
<stop offset="1" stop-color="#661200"/>
</linearGradient>
<linearGradient id="paint23_linear_444_19587" x1="327.585" y1="12.5031" x2="327.585" y2="18.9488" gradientUnits="userSpaceOnUse">
<stop stop-color="#F9B900"/>
<stop offset="1" stop-color="#FFEB67"/>
</linearGradient>
<linearGradient id="paint24_linear_444_19587" x1="385.533" y1="16.9566" x2="250.609" y2="16.9566" gradientUnits="userSpaceOnUse">
<stop stop-color="#F1D0D0"/>
<stop offset="1" stop-color="#FFEF89"/>
</linearGradient>
</defs>
</svg>

<svg width="655" height="78" fill="none" xmlns="http://www.w3.org/2000/svg"><path d="m84.4 12.117-35.333 3.89-7.814.183-6.037 10.873-6.344 2.236-5.883-8.606-11.615.122L.833 23.541H.68l.398 14.242 3.31 3.768 2.237-4.9 2.482-5.392 2.911-.49 10.266 26.065 44.25-7.412L84.4 12.117z" fill="url(#a)"/><path opacity=".5" d="M66.534 49.421 38.801 34.475l-13.575 2.389-2.942 19.97 44.25-7.413z" fill="url(#b)"/><path d="m52.683 7.89-5.117-3.033L35.4 26.726l-.184.337-6.313 2.236h-.03l-5.915-8.668-6.803.122 9.071 16.11.184-.03 5.179-.919 8.212-1.44L52.683 7.89z" fill="url(#c)"/><path opacity=".5" d="M66.534 49.422 42.142 14.597 50.538.11l31.135 17.672-15.139 31.64z" fill="url(#d)"/><path d="m12.018 30.77-.705-2.267-6.925.612V41.55l4.627-10.138.092-.153 2.911-.49z" fill="url(#e)"/><path d="m12.018 30.769 10.265 26.065 44.25-7.382S23.418 55.915 23.08 55.7c-.337-.214 1.318-13.262 1.257-12.956-.062.307-1.594 10.475-2.299 10.292-.705-.184-10.02-22.267-10.02-22.267z" fill="url(#f)"/><path opacity=".5" d="M4.388 29.115.833 23.54H.68l.398 14.242 3.31 3.767V29.115z" fill="url(#g)"/><path opacity=".5" d="M38.801 34.475s-1.9-4.319-3.401-7.75l-.184.338-6.313 2.236h-.03l-3.647 7.565.183-.03 5.18-.92 8.212-1.44z" fill="url(#h)"/><path opacity=".5" d="M9.015 31.412a167.227 167.227 0 0 1-4.535-2.235l-.123-.062V41.55l4.658-10.138z" fill="url(#i)"/><path d="m570.601 12.117 35.332 3.89 7.815.183 6.037 10.873 6.343 2.236 5.853-8.606 11.645.122 10.541 2.726h.154l-.429 14.242-3.279 3.768-2.237-4.9-2.483-5.392-2.911-.49-10.266 26.065-44.25-7.412-17.865-37.305z" fill="url(#j)"/><path opacity=".5" d="m588.466 49.421 27.733-14.946 13.575 2.389 2.942 19.97-44.25-7.413z" fill="url(#k)"/><path d="m602.317 7.89 5.118-3.033 12.166 21.869.184.337 6.312 2.236h.031l5.914-8.668 6.803.122-9.07 16.11-.184-.03-5.179-.919-8.213-1.44L602.317 7.89z" fill="url(#l)"/><path opacity=".5" d="m588.466 49.422 24.393-34.825L604.463.11l-31.135 17.672 15.138 31.64z" fill="url(#m)"/><path d="m642.982 30.77.705-2.267 6.926.612V41.55l-4.627-10.138-.092-.153-2.912-.49z" fill="url(#n)"/><path d="m642.982 30.769-10.266 26.065-44.25-7.382s43.116 6.463 43.453 6.248c.337-.214-1.317-13.262-1.256-12.956.061.307 1.593 10.475 2.298 10.292.705-.184 10.021-22.267 10.021-22.267z" fill="url(#o)"/><path opacity=".5" d="m650.612 29.115 3.555-5.574h.153l-.429 14.242-3.279 3.767V29.115z" fill="url(#p)"/><path opacity=".5" d="M616.199 34.475s1.9-4.319 3.402-7.75l.184.338 6.312 2.236h.031l3.647 7.565-.184-.03-5.179-.92-8.213-1.44z" fill="url(#q)"/><path opacity=".5" d="M645.985 31.412c1.379-.643 3.953-1.93 4.536-2.235l.122-.062V41.55l-4.658-10.138z" fill="url(#r)"/><path d="m225.639 15.577 21.052-.275c.031.03.031 0 .031 0l80.809-.98h.092l79.031.98 22.86.275C397.43 38.732 363.599 56.59 327.623 68.074h-.092c-35.946-11.485-69.808-29.342-101.892-52.497z" fill="url(#s)"/><path opacity=".5" d="m406.654 15.302-1.931 1.592c-20.102-.367-143.721-2.664-158.001-1.592 0 0 0 .03-.031 0l-21.052.275c32.084 23.155 65.915 41.012 101.892 52.497h.092c35.976-11.485 69.807-29.342 101.891-52.497l-22.86-.275zm-79.062 46.524c-17.437 0-73.117-38.684-73.117-38.684s123.435.43 149.911 0c-16.977 13.263-59.296 38.684-76.794 38.684z" fill="url(#t)"/><path d="m244.087 15.363 2.635-.03h.031l80.809-.98h.092l50.685.642c-8.703 8.178-40.021 35.927-67.325 38.653-28.162 2.787-59.603-30.107-66.927-38.285z" fill="url(#u)" style="mix-blend-mode:screen" opacity=".5"/><path d="m215.373 18.365 13.3 9.617a356.462 356.462 0 0 0 13.79 9.495c26.415 17.397 53.719 30.659 81.391 39.51 0 0 2.053.552 3.707.552 1.257 0 2.85-.337 3.463-.49l.062-.03c.153-.032.214-.062.214-.062 29.51-9.434 58.561-23.89 86.57-43.033.521-.337 1.011-.643 1.501-1.01a8.54 8.54 0 0 0 .95-.644 738.771 738.771 0 0 0 6.16-4.35l13.269-9.586 3.677.061-24.086-.306c-.123.061-.215.184-.337.245-1.165.858-2.39 1.685-3.555 2.512-27.733 19.54-56.968 34.64-87.857 44.533h-.061c-30.675-9.8-59.573-24.686-87.06-43.982-.583-.398-1.195-.796-1.778-1.225-.888-.643-1.746-1.225-2.604-1.869-.123-.06-.215-.183-.338-.245h.95l-21.328.307z" fill="url(#v)"/><path d="m229.224 18.12 6.557-.031c1.563 1.133 3.126 2.266 4.72 3.338 27.488 19.266 56.385 34.182 87.06 43.983h.061c32.36-10.353 62.851-26.432 91.749-47.26h7.354s-40.695 35.376-99.134 51.578c-51.727-12.68-98.367-51.608-98.367-51.608z" fill="url(#w)"/><path opacity=".5" d="M327.531 14.352c38.52-.52 89.297 2.113 91.841 3.798l-92.148-1.133-90.492 1.102h-.95c3.249-2.817 53.474-3.246 91.749-3.767z" fill="url(#x)"/><path d="M385.54 17.721H250.613s75.477-1.378 77.714-1.531c2.268-.123 55.803 1.5 57.213 1.531z" fill="url(#y)"/><defs><linearGradient id="m" x1="603.196" y1="77.838" x2="593.892" y2="21.056" gradientUnits="userSpaceOnUse"><stop stop-color="#E07300"/><stop offset="1" stop-color="#661200"/></linearGradient><linearGradient id="a" x1="51.21" y1="1.096" x2="12.311" y2="79.394" gradientUnits="userSpaceOnUse"><stop stop-color="#BF4A00"/><stop offset=".74" stop-color="#FFAF06"/><stop offset="1" stop-color="#FF9404"/></linearGradient><linearGradient id="c" x1="33.829" y1=".099" x2="35.129" y2="31.386" gradientUnits="userSpaceOnUse"><stop stop-color="#AF4B00"/><stop offset="1" stop-color="#661200"/></linearGradient><linearGradient id="d" x1="61.914" y1="79.764" x2="61.914" y2="37.411" gradientUnits="userSpaceOnUse"><stop stop-color="#E07300"/><stop offset="1" stop-color="#661200"/></linearGradient><linearGradient id="e" x1="8.906" y1="28.515" x2=".417" y2="45.6" gradientUnits="userSpaceOnUse"><stop stop-color="#AF4B00"/><stop offset="1" stop-color="#661200"/></linearGradient><linearGradient id="f" x1="38.398" y1="33.635" x2="33.615" y2="-1.891" gradientUnits="userSpaceOnUse"><stop stop-color="#F1D0D0"/><stop offset="1" stop-color="#FFEF89"/></linearGradient><linearGradient id="g" x1="1.958" y1="27.703" x2="-1.268" y2="3.736" gradientUnits="userSpaceOnUse"><stop stop-color="#F9B900"/><stop offset="1" stop-color="#FFEB67"/></linearGradient><linearGradient id="h" x1="25.207" y1="-5.129" x2="31.602" y2="33.247" gradientUnits="userSpaceOnUse"><stop stop-color="#E07300"/><stop offset="1" stop-color="#661200"/></linearGradient><linearGradient id="i" x1="6.507" y1="31.057" x2=".09" y2="43.972" gradientUnits="userSpaceOnUse"><stop stop-color="#E07300"/><stop offset="1" stop-color="#661200"/></linearGradient><linearGradient id="j" x1="603.79" y1="1.096" x2="642.689" y2="79.394" gradientUnits="userSpaceOnUse"><stop stop-color="#BF4A00"/><stop offset=".74" stop-color="#FFAF06"/><stop offset="1" stop-color="#FF9404"/></linearGradient><linearGradient id="k" x1="624.579" y1="23.366" x2="614.808" y2="44.188" gradientUnits="userSpaceOnUse"><stop stop-color="#F9B900"/><stop offset="1" stop-color="#FFEB67"/></linearGradient><linearGradient id="l" x1="621.171" y1=".099" x2="619.871" y2="31.386" gradientUnits="userSpaceOnUse"><stop stop-color="#AF4B00"/><stop offset="1" stop-color="#661200"/></linearGradient><linearGradient id="b" x1="30.421" y1="23.366" x2="40.192" y2="44.188" gradientUnits="userSpaceOnUse"><stop stop-color="#F9B900"/><stop offset="1" stop-color="#FFEB67"/></linearGradient><linearGradient id="n" x1="646.097" y1="28.515" x2="654.583" y2="45.6" gradientUnits="userSpaceOnUse"><stop stop-color="#AF4B00"/><stop offset="1" stop-color="#661200"/></linearGradient><linearGradient id="o" x1="616.601" y1="33.635" x2="621.385" y2="-1.891" gradientUnits="userSpaceOnUse"><stop stop-color="#F1D0D0"/><stop offset="1" stop-color="#FFEF89"/></linearGradient><linearGradient id="p" x1="653.042" y1="27.703" x2="656.268" y2="3.736" gradientUnits="userSpaceOnUse"><stop stop-color="#F9B900"/><stop offset="1" stop-color="#FFEB67"/></linearGradient><linearGradient id="q" x1="629.793" y1="-5.129" x2="623.398" y2="33.247" gradientUnits="userSpaceOnUse"><stop stop-color="#E07300"/><stop offset="1" stop-color="#661200"/></linearGradient><linearGradient id="r" x1="648.494" y1="31.057" x2="654.91" y2="43.972" gradientUnits="userSpaceOnUse"><stop stop-color="#E07300"/><stop offset="1" stop-color="#661200"/></linearGradient><linearGradient id="s" x1="327.585" y1="81.031" x2="327.585" y2="18.892" gradientUnits="userSpaceOnUse"><stop stop-color="#F9B900"/><stop offset="1" stop-color="#FF9601"/></linearGradient><linearGradient id="t" x1="326.572" y1="5.011" x2="334.186" y2="84.52" gradientUnits="userSpaceOnUse"><stop stop-color="#B41D00"/><stop offset="1" stop-color="#F1D0D0"/></linearGradient><linearGradient id="u" x1="333.879" y1="65.911" x2="315.096" y2="23.85" gradientUnits="userSpaceOnUse"><stop stop-color="#F9B900"/><stop offset="1"/></linearGradient><linearGradient id="v" x1="329.411" y1="-109.756" x2="329.411" y2="85.967" gradientUnits="userSpaceOnUse"><stop stop-color="#933500"/><stop offset=".389" stop-color="#BF4A00"/><stop offset="1" stop-color="#FF9404"/></linearGradient><linearGradient id="w" x1="327.974" y1="-5.488" x2="327.974" y2="80.642" gradientUnits="userSpaceOnUse"><stop stop-color="#AF4B00"/><stop offset="1" stop-color="#661200"/></linearGradient><linearGradient id="x" x1="327.585" y1="12.503" x2="327.585" y2="18.949" gradientUnits="userSpaceOnUse"><stop stop-color="#F9B900"/><stop offset="1" stop-color="#FFEB67"/></linearGradient><linearGradient id="y" x1="385.533" y1="16.957" x2="250.609" y2="16.957" gradientUnits="userSpaceOnUse"><stop stop-color="#F1D0D0"/><stop offset="1" stop-color="#FFEF89"/></linearGradient></defs></svg>
